X: 220
T:Hickory Jack
M:4/4
L:1/8
F:http://blackrosetheband.googlepages.com/ABCTUNES.ABC May 2009
C:as played by Matt Brown
K:AMix
|:"A"e-a2 aa2 g-a|bage "E"d-e2e|"G"gfed "D"BAGD|1"E"EGAB "A"A2A2:|2"E"EG
AB "A"A3A||
|:"A"A c2-B A2 A-B|cBAG "E"E(DEF)|"G"GAGD "D"EDCD|"E"E-GAB "A"A2A2-:||
A-B)cd e2ef|"G"gfed "D"BAGD|"E"EGAB "A"A3A|
"A"A c2-B A2 A-B|cBAG "E"E(DEF)|"G"GFGF "D"EDCD|"E"E-GAB "A"A2A2-|
A-Bcd e2ef"G"|gfed "D"BAGD|"E"EGAB "A"A2A2||

